src/assets/icons/footer-logo.svg

<svg width="156" height="50" viewBox="0 0 156 50" fill="none" xmlns="http://www.w3.org/2000/svg">
<g id="Union">
<path id="Union_2" fill-rule="evenodd" clip-rule="evenodd" d="M24.9998 0C26.0581 0 27.101 0.0657584 28.1247 0.193412V13.5417C28.1247 16.9934 25.3265 19.7917 21.8748 19.7917H0.543304C2.93947 8.48442 12.9788 0 24.9998 0ZM24.9998 50C26.0581 50 27.101 49.9342 28.1247 49.8066V28.125C28.1247 24.6732 25.3265 21.875 21.8748 21.875H0.193416C0.0657598 22.8987 0 23.9417 0 25C0 38.8071 11.1928 50 24.9998 50ZM49.9995 25C49.9995 23.9417 49.9338 22.8987 49.8061 21.875H36.458C33.0062 21.875 30.208 24.6732 30.208 28.125V49.4567C41.5152 47.0605 49.9995 37.0211 49.9995 25ZM49.4562 19.7917C47.4161 10.1644 39.8352 2.58345 30.208 0.543299V13.5417C30.208 16.9934 33.0062 19.7917 36.458 19.7917H49.4562ZM155.556 12.5529H150.405V23.8644C149.832 23.1302 149.123 22.5392 148.277 22.0912C147.43 21.6308 146.466 21.4005 145.383 21.4005C144.027 21.4005 142.758 21.6556 141.576 22.1658C140.393 22.676 139.348 23.3853 138.44 24.2938C137.544 25.1897 136.841 26.2288 136.331 27.411C135.82 28.5931 135.565 29.8624 135.565 31.2188C135.565 32.5752 135.82 33.8445 136.331 35.0267C136.841 36.2088 137.544 37.2541 138.44 38.1625C139.348 39.0585 140.393 39.7616 141.576 40.2718C142.758 40.782 144.027 41.0371 145.383 41.0371C146.466 41.0371 147.43 40.8069 148.277 40.3464C149.123 39.886 149.832 39.2949 150.405 38.5732V40.5518H155.556V12.5529ZM147.754 35.4373C147.07 35.8728 146.304 36.0906 145.458 36.0906C144.612 36.0906 143.84 35.8728 143.144 35.4373C142.447 35.0018 141.887 34.4169 141.464 33.6827C141.053 32.9361 140.848 32.1148 140.848 31.2188C140.848 30.3228 141.053 29.5078 141.464 28.7736C141.874 28.0269 142.428 27.4359 143.125 27.0003C143.822 26.5648 144.599 26.347 145.458 26.347C146.304 26.347 147.07 26.5648 147.754 27.0003C148.438 27.4359 148.98 28.0207 149.378 28.7549C149.776 29.4891 149.975 30.3104 149.975 31.2188C149.975 32.1148 149.776 32.9361 149.378 33.6827C148.98 34.4169 148.438 35.0018 147.754 35.4373ZM64.4823 21.8859H69.6341V40.5518H64.4823V21.8859ZM67.0955 19.7393C66.3489 19.7393 65.7205 19.4904 65.2103 18.9926C64.7001 18.4949 64.445 17.8789 64.445 17.1447C64.445 16.4105 64.7001 15.7945 65.2103 15.2968C65.7205 14.799 66.3427 14.5502 67.0769 14.5502C67.811 14.5502 68.427 14.799 68.9248 15.2968C69.435 15.7945 69.6901 16.4105 69.6901 17.1447C69.6901 17.8789 69.4412 18.4949 68.9434 18.9926C68.4581 19.4904 67.8421 19.7393 67.0955 19.7393ZM90.7007 28.6802V40.5518H85.5489V30.0989C85.5489 29.4393 85.3872 28.8482 85.0636 28.3256C84.7525 27.7905 84.3295 27.3674 83.7944 27.0563C83.2717 26.7452 82.6869 26.5897 82.0398 26.5897C81.3927 26.5897 80.8016 26.7452 80.2665 27.0563C79.7315 27.3674 79.3084 27.7905 78.9973 28.3256C78.6862 28.8482 78.5306 29.4393 78.5306 30.0989V40.5518H73.3789L73.3602 21.8859H78.512L78.5306 23.2671C79.1528 22.6698 79.8808 22.2032 80.7145 21.8672C81.5607 21.5312 82.4504 21.3632 83.3837 21.3632C84.7401 21.3632 85.9658 21.693 87.0609 22.3525C88.1684 23.012 89.0519 23.8956 89.7114 25.0031C90.3709 26.0981 90.7007 27.3239 90.7007 28.6802ZM97.8193 39.7491C99.3126 40.6327 100.961 41.0744 102.766 41.0744C103.848 41.0744 104.807 40.838 105.64 40.3651C106.474 39.8922 107.183 39.2949 107.768 38.5732V50H112.92V21.8859H107.768V23.9018C107.183 23.1676 106.474 22.5703 105.64 22.1098C104.807 21.637 103.848 21.4005 102.766 21.4005C101.409 21.4005 100.14 21.6556 98.9579 22.1658C97.7758 22.676 96.7305 23.3853 95.8221 24.2938C94.9261 25.1897 94.2231 26.2288 93.7129 27.411C93.2027 28.5931 92.9476 29.8624 92.9476 31.2188C92.9476 33.0356 93.3893 34.6907 94.2728 36.1839C95.1564 37.6772 96.3385 38.8656 97.8193 39.7491ZM100.507 27.019C101.204 26.571 101.982 26.347 102.84 26.347C103.687 26.347 104.446 26.571 105.118 27.019C105.802 27.4545 106.337 28.0394 106.723 28.7736C107.121 29.5078 107.32 30.3228 107.32 31.2188C107.32 32.1148 107.121 32.9361 106.723 33.6827C106.337 34.4169 105.802 35.0018 105.118 35.4373C104.446 35.8728 103.687 36.0906 102.84 36.0906C101.982 36.0906 101.204 35.8728 100.507 35.4373C99.8103 35.0018 99.2566 34.4169 98.846 33.6827C98.4353 32.9485 98.23 32.1272 98.23 31.2188C98.23 30.3353 98.4353 29.5264 98.846 28.7922C99.2566 28.0456 99.8103 27.4545 100.507 27.019ZM115.96 33.72V21.8859H121.112V32.3014C121.112 32.961 121.268 33.5583 121.579 34.0934C121.902 34.616 122.332 35.0329 122.867 35.344C123.402 35.6551 123.987 35.8106 124.621 35.8106C125.268 35.8106 125.859 35.6551 126.395 35.344C126.93 35.0329 127.353 34.616 127.664 34.0934C127.975 33.5583 128.13 32.961 128.13 32.3014V21.8859H133.282L133.301 40.5518H128.149L128.13 39.1332C127.508 39.7305 126.774 40.1971 125.928 40.5331C125.094 40.8691 124.211 41.0371 123.277 41.0371C121.933 41.0371 120.708 40.7073 119.6 40.0478C118.493 39.3883 117.609 38.511 116.95 37.4159C116.29 36.3084 115.96 35.0764 115.96 33.72Z" fill="#BFFFC8"/>
</g>
</svg>

<svg width="156" height="50" fill="none" xmlns="http://www.w3.org/2000/svg"><path fill-rule="evenodd" clip-rule="evenodd" d="M25 0c1.058 0 2.101.066 3.125.193v13.349a6.25 6.25 0 0 1-6.25 6.25H.543C2.94 8.484 12.98 0 25 0zm0 50c1.058 0 2.101-.066 3.125-.193V28.125a6.25 6.25 0 0 0-6.25-6.25H.193A25.247 25.247 0 0 0 0 25c0 13.807 11.193 25 25 25zm25-25c0-1.058-.066-2.101-.194-3.125H36.458a6.25 6.25 0 0 0-6.25 6.25v21.332C41.515 47.06 49.999 37.02 49.999 25zm-.544-5.208c-2.04-9.628-9.62-17.209-19.248-19.249v12.999a6.25 6.25 0 0 0 6.25 6.25h12.998zm106.1-7.24h-5.151v11.312a6.554 6.554 0 0 0-2.128-1.773c-.847-.46-1.811-.69-2.894-.69a9.503 9.503 0 0 0-3.807.765 9.983 9.983 0 0 0-3.136 2.128 9.924 9.924 0 0 0-2.109 3.117 9.492 9.492 0 0 0-.766 3.808c0 1.356.255 2.625.766 3.808a10.152 10.152 0 0 0 2.109 3.136c.908.896 1.953 1.599 3.136 2.109a9.503 9.503 0 0 0 3.807.765c1.083 0 2.047-.23 2.894-.69a6.88 6.88 0 0 0 2.128-1.774v1.979h5.151v-28zm-7.802 22.885a4.187 4.187 0 0 1-2.296.654 4.277 4.277 0 0 1-2.314-.654 4.939 4.939 0 0 1-1.68-1.754 5.024 5.024 0 0 1-.616-2.464c0-.896.205-1.711.616-2.445A4.74 4.74 0 0 1 143.125 27a4.312 4.312 0 0 1 2.333-.653c.846 0 1.612.218 2.296.653a4.694 4.694 0 0 1 1.624 1.755c.398.734.597 1.555.597 2.464 0 .896-.199 1.717-.597 2.464a4.693 4.693 0 0 1-1.624 1.754zM64.482 21.886h5.152v18.666h-5.152V21.886zm2.614-2.147c-.747 0-1.376-.249-1.886-.746-.51-.498-.765-1.114-.765-1.848 0-.735.255-1.35.765-1.848s1.133-.747 1.867-.747 1.35.249 1.848.747c.51.497.765 1.113.765 1.848 0 .734-.249 1.35-.747 1.848-.485.497-1.1.746-1.847.746zM90.7 28.68v11.872h-5.152V30.099a3.3 3.3 0 0 0-.485-1.773 3.45 3.45 0 0 0-1.27-1.27 3.365 3.365 0 0 0-1.754-.466c-.647 0-1.238.155-1.774.466a3.45 3.45 0 0 0-1.269 1.27 3.4 3.4 0 0 0-.466 1.773v10.453h-5.152l-.019-18.666h5.152l.019 1.381a6.775 6.775 0 0 1 2.183-1.4 7.166 7.166 0 0 1 2.67-.504c1.356 0 2.582.33 3.677.99a7.511 7.511 0 0 1 2.65 2.65c.66 1.095.99 2.32.99 3.677zm7.118 11.07c1.494.883 3.142 1.324 4.947 1.324 1.082 0 2.041-.236 2.874-.709a7.421 7.421 0 0 0 2.128-1.792V50h5.152V21.886h-5.152v2.016a7.047 7.047 0 0 0-2.128-1.792c-.833-.473-1.792-.71-2.874-.71a9.505 9.505 0 0 0-3.808.766 9.997 9.997 0 0 0-5.245 5.245 9.505 9.505 0 0 0-.765 3.808c0 1.817.441 3.472 1.325 4.965a10.037 10.037 0 0 0 3.546 3.565zm2.688-12.731a4.225 4.225 0 0 1 2.333-.672c.847 0 1.606.224 2.278.672a4.55 4.55 0 0 1 1.605 1.755c.398.734.597 1.549.597 2.445 0 .896-.199 1.717-.597 2.464a4.55 4.55 0 0 1-1.605 1.754c-.672.436-1.431.654-2.278.654a4.314 4.314 0 0 1-2.333-.654 4.787 4.787 0 0 1-1.661-1.754c-.41-.734-.616-1.556-.616-2.464 0-.884.205-1.693.616-2.427a4.747 4.747 0 0 1 1.661-1.773zm15.453 6.701V21.886h5.152V32.3a3.5 3.5 0 0 0 .467 1.792c.323.523.753.94 1.288 1.251.535.311 1.12.467 1.754.467a3.47 3.47 0 0 0 1.774-.467 3.495 3.495 0 0 0 1.269-1.25 3.5 3.5 0 0 0 .466-1.793V21.886h5.152l.019 18.666h-5.152l-.019-1.419a6.724 6.724 0 0 1-2.202 1.4 7.024 7.024 0 0 1-2.651.504c-1.344 0-2.569-.33-3.677-.99a7.56 7.56 0 0 1-2.65-2.631c-.66-1.108-.99-2.34-.99-3.696z" fill="#BFFFC8"/></svg>
